X: 1
T: Phantom Tick Syndrome
C: Maria Terres 2012
S: handwritten MS, reportedly written in a tune-writing workshop at Pinewoods Camp
R: reel
Z: 2013 John Chambers <jc:trillian.mit.edu>
M: C|
L: 1/8
K: D
FE |\
DdAF G2FG | Acec d2cd | eAce gfed | edcB AFGE |
DdAF G2FG | Acec d2cd | eAce gfed | cABc d2 :|
|: (3DEF |\
GABd gdBG | z=F-FF EFED | zE-E=C EGEC | z^F-FE FAFD |
GABd gdBG | z=F-FF EFED | E=CEG FDFA | GDGB A2 :|
